X:109
T:Caisteal Chuimri
R:Strathspey
B:The Athole Collection
M:C
L:1/8
K:G
(3d/e/f/|g>d d>e e/d/^c/d/ B>d|e>Gd>G F<A A(3d/e/f/|
g>d d>e e/d/^c/d/ B>G|EF/G/ F>E D<GG:|
B|GA/B/ E>G D>GB,>G|G/A/B A>G F<A A>B|GA/B/ E>G D>GB,>G|
E/F/G F>E D>GG>B|GA/B/ E>G D>GB,>G|G/A/B/c/ d>G F<A A>B|
G>B,C>D E>FG>e|d<G F>E D>GG||

